dist/img/icons/about/3.svg

<svg width="44" height="44" viewBox="0 0 44 44" fill="none" xmlns="http://www.w3.org/2000/svg">
<g clip-path="url(#clip0)">
<path d="M38.0416 40.3336H32.0833C31.5773 40.3336 31.1666 39.923 31.1666 39.417C31.1666 38.911 31.5773 38.5003 32.0833 38.5003H38.0416C39.3048 38.5003 40.3333 37.4718 40.3333 36.2086C40.3333 34.9455 39.3048 33.917 38.0416 33.917H35.2916C33.0165 33.917 31.1666 32.0653 31.1666 29.792C31.1666 27.5187 33.0165 25.667 35.2916 25.667H41.25C41.756 25.667 42.1666 26.0777 42.1666 26.5837C42.1666 27.0897 41.756 27.5003 41.25 27.5003H35.2916C34.0285 27.5003 33 28.5288 33 29.792C33 31.0552 34.0285 32.0837 35.2916 32.0837H38.0416C40.3168 32.0837 42.1666 33.9353 42.1666 36.2086C42.1666 38.482 40.3168 40.3336 38.0416 40.3336Z" fill="white"/>
<path d="M36.6888 43.9999C36.1828 43.9999 35.7721 43.5892 35.7721 43.0832V39.7961C35.7721 39.2901 36.1828 38.8794 36.6888 38.8794C37.1948 38.8794 37.6054 39.2901 37.6054 39.7961V43.0832C37.6054 43.5892 37.1966 43.9999 36.6888 43.9999Z" fill="white"/>
<path d="M36.6888 27.5C36.1828 27.5 35.7721 27.0893 35.7721 26.5833V22.9167C35.7721 22.4107 36.1828 22 36.6888 22C37.1948 22 37.6054 22.4107 37.6054 22.9167V26.5833C37.6054 27.0893 37.1966 27.5 36.6888 27.5Z" fill="white"/>
<path d="M35.7499 20.1668C35.2439 20.1668 34.8333 19.7561 34.8333 19.2501V11.1083L18.7549 19.153C18.3021 19.3785 17.7521 19.1951 17.5248 18.7423C17.2993 18.2913 17.4826 17.7395 17.9354 17.514L35.3411 8.80563C35.6216 8.66263 35.9626 8.67729 36.2321 8.84596C36.5016 9.01279 36.6666 9.30796 36.6666 9.62513V19.2501C36.6666 19.7561 36.2559 20.1668 35.7499 20.1668Z" fill="white"/>
<path d="M18.3223 36.6665C18.1757 36.6665 18.029 36.6299 17.8952 36.5602L0.4895 27.3935C0.188833 27.234 0 26.9242 0 26.5832V9.62487C0 9.30771 0.165 9.01254 0.4345 8.84571C0.704 8.67704 1.045 8.66421 1.32733 8.80537L18.733 17.5137C19.0428 17.6695 19.239 17.9867 19.239 18.3332V35.7499C19.239 36.0707 19.0703 36.3695 18.7953 36.5345C18.6505 36.6225 18.4855 36.6665 18.3223 36.6665ZM1.83333 26.0295L17.4057 34.2319V18.8997L1.83333 11.108V26.0295Z" fill="white"/>
<path d="M35.75 10.5417C35.6125 10.5417 35.4732 10.5106 35.3412 10.4446L18.3223 1.94156L1.32734 10.4446C0.874509 10.6682 0.322675 10.4886 0.0971754 10.0357C-0.128325 9.58289 0.0531754 9.03106 0.506009 8.80556L17.9117 0.0972266C18.1702 -0.0311068 18.4745 -0.0311068 18.7312 0.0972266L36.1588 8.80556C36.6117 9.03289 36.795 9.58289 36.5695 10.0357C36.41 10.3566 36.0855 10.5417 35.75 10.5417Z" fill="white"/>
<path d="M9.24565 21.5213C8.73965 21.5213 8.32898 21.1107 8.32898 20.6047V13.7883C8.32898 13.4418 8.52515 13.1247 8.83498 12.9688L26.2406 4.2605C26.6935 4.035 27.2416 4.21833 27.4708 4.67116C27.6981 5.124 27.513 5.674 27.0601 5.90133L10.1623 14.3567V20.6065C10.1623 21.1125 9.75348 21.5213 9.24565 21.5213Z" fill="white"/>
<path d="M18.3223 36.6666C17.9813 36.6666 17.6549 36.4759 17.4954 36.1496C17.2754 35.6931 17.4661 35.1449 17.9226 34.9249L28.0169 30.0501C28.4734 29.8282 29.0198 30.0189 29.2398 30.4754C29.4598 30.9319 29.2691 31.4801 28.8126 31.7001L18.7183 36.5749C18.5918 36.6372 18.4561 36.6666 18.3223 36.6666Z" fill="white"/>
</g>
<defs>
<clipPath id="clip0">
<rect width="44" height="44" fill="white"/>
</clipPath>
</defs>
</svg>

<svg width="44" height="44" fill="none" xmlns="http://www.w3.org/2000/svg"><g clip-path="url(#clip0)" fill="#fff"><path d="M38.042 40.334h-5.959a.917.917 0 010-1.834h5.959a2.295 2.295 0 002.291-2.291 2.295 2.295 0 00-2.291-2.292h-2.75a4.13 4.13 0 01-4.125-4.125 4.13 4.13 0 014.125-4.125h5.958a.917.917 0 010 1.833h-5.958A2.295 2.295 0 0033 29.792a2.295 2.295 0 002.292 2.292h2.75a4.13 4.13 0 014.125 4.125 4.13 4.13 0 01-4.125 4.125z"/><path d="M36.689 44a.917.917 0 01-.917-.917v-3.287a.917.917 0 011.833 0v3.287a.916.916 0 01-.916.917zm0-16.5a.917.917 0 01-.917-.917v-3.666a.917.917 0 011.833 0v3.666a.916.916 0 01-.916.917zm-.939-7.333a.917.917 0 01-.917-.917v-8.142l-16.078 8.045a.916.916 0 11-.82-1.639l17.406-8.708a.918.918 0 011.326.82v9.624a.918.918 0 01-.917.917z"/><path d="M18.322 36.666a.926.926 0 01-.427-.106L.49 27.393a.916.916 0 01-.49-.81V9.625a.918.918 0 011.327-.82l17.406 8.709c.31.155.506.473.506.82V35.75a.916.916 0 01-.917.916zM1.833 26.03l15.573 8.202V18.9L1.833 11.108v14.921z"/><path d="M35.75 10.542a.91.91 0 01-.409-.097L18.322 1.942 1.327 10.445a.917.917 0 01-.821-1.639L17.912.097a.92.92 0 01.82 0l17.427 8.709a.918.918 0 01.41 1.23.914.914 0 01-.819.506z"/><path d="M9.246 21.521a.917.917 0 01-.917-.916v-6.817a.92.92 0 01.506-.82l17.406-8.707a.917.917 0 11.82 1.64l-16.899 8.456v6.25a.914.914 0 01-.916.914zm9.076 15.146a.917.917 0 01-.4-1.742l10.095-4.875a.917.917 0 01.796 1.65l-10.095 4.875a.895.895 0 01-.396.092z"/></g><defs><clipPath id="clip0"><path fill="#fff" d="M0 0h44v44H0z"/></clipPath></defs></svg>
